lib/logo_tmp/nrk-logo-nrk-p2-with-bg.svg

<svg width="80" height="28" viewBox="0 0 80 28" fill="none" xmlns="http://www.w3.org/2000/svg">
<rect width="79.3333" height="28" fill="#78003D"/>
<path d="M6.66663 21V7.00129H11.26V21H6.66663ZM17.5094 9.22926L20.151 21H15.124L11.9697 7.00129H14.7892C15.4357 6.9929 16.063 7.22081 16.5535 7.64214C17.0449 8.0458 17.3824 8.60617 17.5094 9.22926ZM20.8411 21V7.00129H25.4345V21H20.8411ZM28.9038 12.3248C28.4089 12.3296 27.9218 12.2001 27.4946 11.9501C27.073 11.7065 26.7229 11.3563 26.4793 10.9347C26.229 10.5074 26.0995 10.0202 26.1044 9.52506C26.0988 9.03289 26.2284 8.54863 26.4793 8.12519C26.7255 7.70818 27.0752 7.3618 27.4946 7.11963C27.922 6.86994 28.4089 6.74045 28.9038 6.74497C29.3959 6.73967 29.8799 6.86927 30.3035 7.11963C30.7187 7.36392 31.0647 7.71001 31.309 8.12519C31.5596 8.54875 31.6892 9.03293 31.6838 9.52506C31.6884 10.0202 31.5589 10.5073 31.309 10.9347C31.0673 11.3545 30.7209 11.7043 30.3035 11.9501C29.8799 12.201 29.3955 12.3306 28.9032 12.3248H28.9038ZM32.3935 21V7.00129H36.9873V21H32.3935ZM42.8027 14.6513C42.8156 14.6649 42.9141 14.8259 43.0983 15.1343C43.2826 15.4428 43.5224 15.8372 43.8179 16.3174C44.1136 16.7973 44.4257 17.3067 44.754 17.8454C45.0824 18.384 45.3913 18.8934 45.6809 19.3734C45.9694 19.8534 46.298 20.3956 46.6666 21H41.6198C41.3041 20.4874 41.0181 20.0241 40.7618 19.61C40.5056 19.196 40.2331 18.749 39.9444 18.2693C39.6551 17.7899 39.369 17.3233 39.0862 16.8694C38.8034 16.4155 38.5604 16.0179 38.3571 15.6766C38.153 15.3351 38.0116 15.105 37.9329 14.9865C37.7379 14.6924 37.6225 14.3527 37.5981 14.0007C37.6176 13.6628 37.7263 13.3362 37.9132 13.054C37.992 12.9225 38.1366 12.6892 38.3469 12.354C38.5572 12.0188 38.8036 11.6212 39.0862 11.1612C39.3688 10.7011 39.6549 10.2312 39.9444 9.75146C40.234 9.27169 40.5064 8.82146 40.7618 8.40084C41.0186 7.98066 41.3046 7.51404 41.6198 7.00097H46.6666L42.7629 13.3694C42.6421 13.5585 42.574 13.7764 42.5657 14.0007C42.5787 14.2361 42.6609 14.4624 42.8019 14.6513H42.8027Z" fill="white"/>
<path d="M61.5201 8.81385C61.2776 8.43966 60.9659 8.11499 60.6017 7.85718C60.196 7.57365 59.7454 7.36033 59.2688 7.22618C58.69 7.06673 58.0914 6.9905 57.4911 6.99976H52V20.9997H54.074V15.9715H57.6494C58.4562 15.9837 59.2524 15.7867 59.9601 15.3997C60.6383 15.0246 61.2016 14.4724 61.5896 13.8022C62.0056 13.0627 62.2138 12.2247 62.1921 11.3769C62.1938 10.9187 62.1408 10.462 62.0344 10.0163C61.9316 9.58958 61.7578 9.18312 61.5201 8.81385ZM59.6832 13.0631C59.418 13.479 59.0273 13.8001 58.5675 13.98C58.0095 14.1908 57.4156 14.2913 56.8191 14.2758H54.0737V8.71524H57.096C57.6732 8.69351 58.2477 8.80473 58.775 9.04027C59.1943 9.24257 59.5371 9.5745 59.7524 9.98674C59.9807 10.4491 60.0927 10.9601 60.0786 11.4755C60.1013 12.0315 59.9641 12.5824 59.6832 13.0631Z" fill="#FB84C1"/>
<path d="M66.2152 19.3036C66.5279 19.0361 66.8492 18.7574 67.189 18.4558C67.663 18.0353 68.1404 17.5785 68.621 17.0853C69.1017 16.5921 69.5592 16.0796 69.9938 15.5476C70.416 15.0327 70.8021 14.4893 71.1493 13.9212C71.4736 13.3933 71.7386 12.8312 71.9393 12.2451C72.1257 11.7058 72.2225 11.1396 72.2258 10.5691C72.2351 10.0364 72.1273 9.50809 71.9097 9.02155C71.6942 8.562 71.3767 8.15744 70.9814 7.83847C70.529 7.48056 70.0081 7.21873 69.4506 7.06911C68.7654 6.88215 68.0572 6.79255 67.347 6.80293C66.8868 6.80173 66.4274 6.84132 65.9742 6.92124C65.5431 6.99746 65.12 7.11308 64.7101 7.26664C64.3192 7.41269 63.9396 7.58723 63.5743 7.78884L63.8311 9.50432C64.1439 9.29496 64.4783 9.11979 64.8286 8.9818C65.2091 8.82913 65.6024 8.71034 66.0039 8.62684C66.4131 8.5414 66.8301 8.49858 67.2482 8.49903C67.6861 8.4901 68.1227 8.54985 68.542 8.67615C68.876 8.77827 69.183 8.95342 69.4407 9.18884C69.6727 9.40495 69.8518 9.67145 69.9641 9.96771C70.079 10.2802 70.1359 10.6109 70.132 10.9438C70.1254 11.5025 70.0115 12.0547 69.7963 12.5705C69.5463 13.1763 69.2282 13.7518 68.8482 14.286C68.4057 14.9137 67.9241 15.513 67.4063 16.0804C66.8532 16.6916 66.2508 17.3029 65.599 17.9141C64.9472 18.5254 64.2722 19.1465 63.5743 19.7775L63.8311 21H72.3838L72.6208 19.3039L66.2152 19.3036Z" fill="#FB84C1"/>
</svg>

<svg xmlns="http://www.w3.org/2000/svg" viewBox="0 0 80 28"><path fill="#78003D" d="M0 0h79.333v28H0z"/><path fill="#fff" d="M6.667 21V7.001h4.593V21H6.667ZM17.509 9.23 20.151 21h-5.027L11.97 7.001h2.82a2.655 2.655 0 0 1 1.764.641c.49.404.828.964.955 1.587ZM20.841 21V7.001h4.593V21h-4.593Zm8.063-8.675a2.738 2.738 0 0 1-1.41-.375 2.777 2.777 0 0 1-1.015-1.015 2.735 2.735 0 0 1-.375-1.41 2.686 2.686 0 0 1 .375-1.4 2.812 2.812 0 0 1 3.825-1.005c.415.244.76.59 1.005 1.005.25.424.38.908.375 1.4.004.495-.125.982-.375 1.41a2.8 2.8 0 0 1-1.006 1.015c-.423.251-.908.38-1.4.375ZM32.394 21V7.001h4.593V21h-4.593Zm10.409-6.349c.013.014.111.175.295.483.185.309.424.703.72 1.183a366.453 366.453 0 0 1 1.863 3.056c.288.48.617 1.023.986 1.627H41.62a744.12 744.12 0 0 0-.858-1.39c-.256-.414-.529-.861-.818-1.34-.289-.48-.575-.947-.858-1.4a71.148 71.148 0 0 1-.729-1.193 20.758 20.758 0 0 0-.424-.69 2.04 2.04 0 0 1-.335-.986c.02-.338.128-.665.315-.947.079-.132.224-.365.434-.7a210.216 210.216 0 0 0 1.598-2.603c.289-.48.561-.93.817-1.35L41.62 7h5.047l-3.904 6.368c-.12.19-.189.407-.197.632.013.235.095.461.236.65Z"/><path fill="#FB84C1" d="M61.52 8.814a3.513 3.513 0 0 0-.918-.957 4.415 4.415 0 0 0-1.333-.63A6.326 6.326 0 0 0 57.49 7H52v14h2.074v-5.028h3.575a4.67 4.67 0 0 0 2.311-.572 4.271 4.271 0 0 0 1.63-1.598c.416-.74.624-1.577.602-2.425a5.767 5.767 0 0 0-.158-1.36 3.916 3.916 0 0 0-.514-1.203Zm-1.837 4.25a2.33 2.33 0 0 1-1.115.916 4.609 4.609 0 0 1-1.749.296h-2.745v-5.56h3.022a3.77 3.77 0 0 1 1.679.324c.42.203.762.535.977.947.229.462.34.973.327 1.489a2.911 2.911 0 0 1-.396 1.587ZM66.215 19.304c.313-.268.634-.547.974-.848.474-.42.951-.878 1.432-1.37.48-.494.938-1.006 1.373-1.538.422-.515.808-1.059 1.155-1.627.325-.528.59-1.09.79-1.676.187-.54.284-1.105.287-1.676a3.635 3.635 0 0 0-.316-1.547 3.346 3.346 0 0 0-.929-1.184 4.238 4.238 0 0 0-1.53-.769 7.571 7.571 0 0 0-2.104-.266c-.46-.001-.92.038-1.373.118a7.153 7.153 0 0 0-1.264.346c-.39.146-.77.32-1.136.522l.257 1.715c.313-.209.647-.384.998-.522.38-.153.773-.272 1.175-.355.41-.086.826-.128 1.244-.128a4.19 4.19 0 0 1 1.294.177c.334.102.641.277.899.513.232.216.41.482.523.779.115.312.172.643.168.976a4.358 4.358 0 0 1-.336 1.626 8.657 8.657 0 0 1-.948 1.716 18.328 18.328 0 0 1-1.442 1.794 31.433 31.433 0 0 1-1.807 1.834c-.652.611-1.327 1.232-2.025 1.863L63.831 21h8.553l.237-1.696h-6.406Z"/></svg>
